Obsidian/actions/16s/document-open-symbolic.svg

<svg height="16" width="16" xmlns="http://www.w3.org/2000/svg"><path d="m3 1c-.554 0-1 .446-1 1v1c0-.554.446-1 1-1h3c.554 0 1 .446 1 1h6 1c0-.554-.446-1-1-1h-6c0-.554-.446-1-1-1zm-.5 3c-.831 0-1.5.669-1.5 1.5v1c0-.831.669-1.5 1.5-1.5h4 6 1c.831 0 1.5.669 1.5 1.5v-1c0-.831-.669-1.5-1.5-1.5zm4.5 8.5v1c0 .277.223.5.5.5h4c.277 0 .5-.223.5-.5v-1c0 .277-.223.5-.5.5h-4c-.277 0-.5-.223-.5-.5zm-4-11.5c-.554 0-1 .446-1 1v1h12c0-.554-.446-1-1-1h-6c0-.554-.446-1-1-1zm-.5 3c-.831 0-1.5.669-1.5 1.5v4.5 1.5c0 .831.669 1.5 1.5 1.5h2.5v.5c0 .831.669 1.5 1.5 1.5h6c.831 0 1.5-.669 1.5-1.5v-.4375h.03125v-.15625c.572473-.210959.96875-.758762.96875-1.40625v-1.5-4.5c0-.831-.669-1.5-1.5-1.5h-1-6zm5 2h4c.277 0 .5.223.5.5v6c0 .277-.223.5-.5.5h-4c-.277 0-.5-.223-.5-.5v-6c0-.277.223-.5.5-.5z" fill="#bebebe"/></svg>

<?xml version="1.0" encoding="UTF-8" standalone="no"?>
<!-- Created with Inkscape (http://www.inkscape.org/) -->

<svg
   xmlns:dc="http://purl.org/dc/elements/1.1/"
   xmlns:cc="http://creativecommons.org/ns#"
   xmlns:rdf="http://www.w3.org/1999/02/22-rdf-syntax-ns#"
   xmlns:svg="http://www.w3.org/2000/svg"
   xmlns="http://www.w3.org/2000/svg"
   xmlns:xlink="http://www.w3.org/1999/xlink"
   xmlns:sodipodi="http://sodipodi.sourceforge.net/DTD/sodipodi-0.dtd"
   xmlns:inkscape="http://www.inkscape.org/namespaces/inkscape"
   width="16"
   height="16"
   id="svg2"
   sodipodi:version="0.32"
   inkscape:version="0.91 r13725"
   version="1.0"
   sodipodi:docname="document-open-symbolic.svg"
   inkscape:output_extension="org.inkscape.output.svg.inkscape"
   inkscape:export-filename="/home/matt/.icons/Sirocco/scalable/mimetypes/text-plain.png"
   inkscape:export-xdpi="90"
   inkscape:export-ydpi="90"
   sodipodi:modified="true"
   style="display:inline">
  <sodipodi:namedview
     id="base"
     pagecolor="#ffffff"
     bordercolor="#666666"
     borderopacity="1.0"
     inkscape:pageopacity="0.0"
     inkscape:pageshadow="2"
     inkscape:zoom="18.064397"
     inkscape:cx="-12.950296"
     inkscape:cy="5.71153"
     inkscape:document-units="px"
     inkscape:current-layer="layer1"
     width="128px"
     height="128px"
     inkscape:showpageshadow="false"
     inkscape:window-width="1920"
     inkscape:window-height="1004"
     inkscape:window-x="0"
     inkscape:window-y="25"
     showguides="true"
     inkscape:guide-bbox="true"
     showgrid="true"
     inkscape:window-maximized="1">
    <sodipodi:guide
       id="guide2226"
       position="32.637397,117.99844"
       orientation="horizontal" />
    <sodipodi:guide
       id="guide2230"
       position="110,57.402344"
       orientation="vertical" />
    <sodipodi:guide
       id="guide2232"
       position="33.760911"
       orientation="horizontal" />
    <sodipodi:guide
       id="guide2231"
       position="46.774696"
       orientation="horizontal" />
    <inkscape:grid
       enabled="true"
       visible="true"
       id="grid3231"
       type="xygrid" />
    <sodipodi:guide
       orientation="1,0"
       position="100,67.625"
       id="guide2713" />
  </sodipodi:namedview>
  <defs
     id="defs4">
    <linearGradient
       inkscape:collect="always"
       xlink:href="#StandardGradient"
       id="linearGradient2428"
       gradientUnits="userSpaceOnUse"
       gradientTransform="matrix(0.9247229,0,0,1.0872097,10.939944,-2.0023588)"
       x1="11.998966"
       y1="3.6813121"
       x2="11.998966"
       y2="16.529612" />
    <inkscape:perspective
       sodipodi:type="inkscape:persp3d"
       inkscape:vp_x="0 : 11 : 1"
       inkscape:vp_y="0 : 1000 : 0"
       inkscape:vp_z="22 : 11 : 1"
       inkscape:persp3d-origin="11 : 7.3333333 : 1"
       id="perspective19" />
    <linearGradient
       id="StandardGradient"
       gradientTransform="scale(0.9219544,1.0846523)"
       x1="11.998966"
       y1="0.92195445"
       x2="11.998966"
       y2="19.387045"
       gradientUnits="userSpaceOnUse">
      <stop
         style="stop-color:#000000;stop-opacity:0.86274511;"
         offset="0"
         id="stop3283" />
      <stop
         style="stop-color:#000000;stop-opacity:0.47058824;"
         offset="1"
         id="stop2651" />
    </linearGradient>
    <linearGradient
       inkscape:collect="always"
       xlink:href="#StandardGradient"
       id="linearGradient2549"
       gradientUnits="userSpaceOnUse"
       gradientTransform="matrix(0.9247229,0,0,1.0872097,-2.0600562,0.9976422)"
       x1="11.998966"
       y1="0.92195445"
       x2="11.998966"
       y2="17.478098" />
    <linearGradient
       inkscape:collect="always"
       xlink:href="#StandardGradient"
       id="linearGradient2418"
       gradientUnits="userSpaceOnUse"
       gradientTransform="matrix(0.9247229,0,0,1.0872097,-4.0600562,-3.0023583)"
       x1="11.998966"
       y1="0.92195445"
       x2="11.998966"
       y2="17.478098" />
    <linearGradient
       inkscape:collect="always"
       xlink:href="#StandardGradient"
       id="linearGradient2422"
       gradientUnits="userSpaceOnUse"
       gradientTransform="matrix(0.9247229,0,0,1.0872097,-5.0600562,-1.0023583)"
       x1="11.998966"
       y1="0.92195445"
       x2="11.998966"
       y2="17.478098" />
    <linearGradient
       inkscape:collect="always"
       xlink:href="#StandardGradient"
       id="linearGradient2403"
       gradientUnits="userSpaceOnUse"
       gradientTransform="matrix(0.9247229,0,0,1.0872097,-4.0600562,-3.0023583)"
       x1="11.998966"
       y1="0.92195445"
       x2="11.998966"
       y2="17.478098" />
    <linearGradient
       inkscape:collect="always"
       xlink:href="#StandardGradient"
       id="linearGradient2406"
       gradientUnits="userSpaceOnUse"
       gradientTransform="matrix(0.9247229,0,0,1.0872097,-4.0600562,-3.0023583)"
       x1="11.998966"
       y1="0.92195445"
       x2="11.998966"
       y2="17.478098" />
    <linearGradient
       inkscape:collect="always"
       xlink:href="#StandardGradient"
       id="linearGradient2409"
       gradientUnits="userSpaceOnUse"
       gradientTransform="matrix(0.9247229,0,0,1.0872097,-6.0600562,-2.0023583)"
       x1="11.998966"
       y1="3.6800685"
       x2="11.998966"
       y2="15.638639" />
    <linearGradient
       inkscape:collect="always"
       xlink:href="#StandardGradient"
       id="linearGradient2416"
       gradientUnits="userSpaceOnUse"
       gradientTransform="matrix(0.9247229,0,0,1.0872097,-6.0600562,-2.0023583)"
       x1="11.998966"
       y1="2.7615263"
       x2="11.998966"
       y2="15.638639" />
    <linearGradient
       inkscape:collect="always"
       xlink:href="#StandardGradient"
       id="linearGradient2529"
       gradientUnits="userSpaceOnUse"
       gradientTransform="matrix(0.9247229,0,0,1.0872097,-4.0418814,0.9976412)"
       x1="11.998966"
       y1="3.6813121"
       x2="11.998966"
       y2="16.529612" />
    <linearGradient
       inkscape:collect="always"
       xlink:href="#StandardGradient"
       id="linearGradient2539"
       gradientUnits="userSpaceOnUse"
       gradientTransform="matrix(0.9247229,0,0,1.0872097,-6.0600562,-2.0023583)"
       x1="11.998966"
       y1="2.7615263"
       x2="11.998966"
       y2="15.638639" />
    <linearGradient
       inkscape:collect="always"
       xlink:href="#StandardGradient"
       id="linearGradient2542"
       gradientUnits="userSpaceOnUse"
       gradientTransform="matrix(0.9247229,0,0,1.0872097,-6.0600562,-2.0023583)"
       x1="11.998966"
       y1="2.7615263"
       x2="11.998966"
       y2="15.638639" />
    <linearGradient
       inkscape:collect="always"
       xlink:href="#StandardGradient"
       id="linearGradient2412"
       gradientUnits="userSpaceOnUse"
       gradientTransform="matrix(0.9247229,0,0,1.0872097,-6.0600562,-2.0023583)"
       x1="11.998966"
       y1="2.7615263"
       x2="11.998966"
       y2="15.638639" />
    <inkscape:perspective
       id="perspective2892"
       inkscape:persp3d-origin="0.5 : 0.33333333 : 1"
       inkscape:vp_z="1 : 0.5 : 1"
       inkscape:vp_y="0 : 1000 : 0"
       inkscape:vp_x="0 : 0.5 : 1"
       sodipodi:type="inkscape:persp3d" />
    <linearGradient
       inkscape:collect="always"
       xlink:href="#StandardGradient"
       id="linearGradient2942"
       gradientUnits="userSpaceOnUse"
       gradientTransform="matrix(0.9247229,0,0,1.0872097,-26.060056,-2.0023583)"
       x1="11.998966"
       y1="2.7615263"
       x2="11.998966"
       y2="15.638639" />
    <clipPath
       clipPathUnits="userSpaceOnUse"
       id="clipPath2949">
      <path
         style="fill:#ff00ff;fill-opacity:1;stroke:none;display:inline"
         d="m -20,0 0,16 16,0 0,-16 -16,0 z m 3,1 3,0 c 0.554,0 1,0.446 1,1 l 6,0 c 0.554,0 1,0.446 1,1 l -12,0 0,-1 c 0,-0.554 0.446,-1 1,-1 z m -0.5,3 4,0 6,0 1,0 C -5.669,4 -5,4.669 -5,5.5 l 0,4.5 0,1.5 c 0,0.647488 -0.396277,1.195291 -0.96875,1.40625 l 0,0.15625 -0.03125,0 0,0.4375 c 0,0.831 -0.669,1.5 -1.5,1.5 l -6,0 c -0.831,0 -1.5,-0.669 -1.5,-1.5 l 0,-0.5 -2.5,0 c -0.831,0 -1.5,-0.669 -1.5,-1.5 l 0,-1.5 0,-4.5 C -19,4.669 -18.331,4 -17.5,4 z m 5,2 C -12.777,6 -13,6.223 -13,6.5 l 0,6 c 0,0.277 0.223,0.5 0.5,0.5 l 4,0 c 0.277,0 0.5,-0.223 0.5,-0.5 l 0,-6 C -8,6.223 -8.223,6 -8.5,6 l -4,0 z"
         id="path2951" />
    </clipPath>
    <linearGradient
       inkscape:collect="always"
       xlink:href="#StandardGradient"
       id="linearGradient5012"
       gradientUnits="userSpaceOnUse"
       gradientTransform="matrix(0.9247229,0,0,1.0872097,-6.0600562,-2.0023583)"
       x1="11.998966"
       y1="2.7615263"
       x2="11.998966"
       y2="15.638639" />
    <linearGradient
       inkscape:collect="always"
       xlink:href="#StandardGradient"
       id="linearGradient5016"
       gradientUnits="userSpaceOnUse"
       gradientTransform="matrix(0.9247229,0,0,1.0872097,-6.0600562,-2.0023583)"
       x1="11.998966"
       y1="2.7615263"
       x2="11.998966"
       y2="15.638639" />
    <linearGradient
       inkscape:collect="always"
       xlink:href="#StandardGradient"
       id="linearGradient3176"
       gradientUnits="userSpaceOnUse"
       gradientTransform="matrix(0.9247229,0,0,1.0872097,-6.0600562,-2.0023583)"
       x1="11.998966"
       y1="2.7615263"
       x2="11.998966"
       y2="15.638639" />
    <linearGradient
       inkscape:collect="always"
       xlink:href="#StandardGradient"
       id="linearGradient3180"
       gradientUnits="userSpaceOnUse"
       gradientTransform="matrix(0.9247229,0,0,1.0872097,-6.0600562,-2.0023583)"
       x1="11.998966"
       y1="2.7615263"
       x2="11.998966"
       y2="15.638639" />
  </defs>
  <metadata
     id="metadata7">
    <rdf:RDF>
      <cc:Work
         rdf:about="">
        <dc:format>image/svg+xml</dc:format>
        <dc:type
           rdf:resource="http://purl.org/dc/dcmitype/StillImage" />
      </cc:Work>
    </rdf:RDF>
  </metadata>
  <g
     style="display:inline"
     inkscape:label="Calque 1"
     id="layer1"
     inkscape:groupmode="layer">
    <path
       id="BevelShadow"
       style="opacity:1;fill:#bebebe;fill-opacity:1;stroke:none;stroke-width:1.00000024;stroke-linecap:round;stroke-linejoin:miter;stroke-miterlimit:4;stroke-dasharray:none;stroke-opacity:1;display:inline"
       d="M 3,1 C 2.446,1 2,1.446 2,2 L 2,3 C 2,2.446 2.446,2 3,2 l 3,0 c 0.554,0 1,0.446 1,1 l 6,0 1,0 C 14,2.446 13.554,2 13,2 L 7,2 C 7,1.446 6.554,1 6,1 L 3,1 Z M 2.5,4 C 1.669,4 1,4.669 1,5.5 l 0,1 C 1,5.669 1.669,5 2.5,5 l 4,0 6,0 1,0 C 14.331,5 15,5.669 15,6.5 l 0,-1 C 15,4.669 14.331,4 13.5,4 l -11,0 z m 4.5,8.5 0,1 C 7,13.777 7.223,14 7.5,14 l 4,0 c 0.277,0 0.5,-0.223 0.5,-0.5 l 0,-1 c 0,0.277 -0.223,0.5 -0.5,0.5 l -4,0 C 7.223,13 7,12.777 7,12.5 Z M 3,1 C 2.446,1 2,1.446 2,2 L 2,3 14,3 C 14,2.446 13.554,2 13,2 L 7,2 C 7,1.446 6.554,1 6,1 L 3,1 Z M 2.5,4 C 1.669,4 1,4.669 1,5.5 L 1,10 1,11.5 C 1,12.331 1.669,13 2.5,13 L 5,13 5,13.5 C 5,14.331 5.669,15 6.5,15 l 6,0 c 0.831,0 1.5,-0.669 1.5,-1.5 l 0,-0.4375 0.03125,0 0,-0.15625 C 14.603723,12.695291 15,12.147488 15,11.5 L 15,10 15,5.5 C 15,4.669 14.331,4 13.5,4 l -1,0 -6,0 -4,0 z m 5,2 4,0 C 11.777,6 12,6.223 12,6.5 l 0,6 c 0,0.277 -0.223,0.5 -0.5,0.5 l -4,0 C 7.223,13 7,12.777 7,12.5 l 0,-6 C 7,6.223 7.223,6 7.5,6 Z" />
  </g>
</svg>
